X:1
T:Title
%%score 1 { 2 | 3 }
L:1/8
Q:1/4=93
M:6/8
K:Bb
V:1 treble nm="Grand Piano, Soprano"
V:2 bass nm="Choir Pad, Only Touch Him"
V:3 bass 
V:1
 [DF]2 [DF] [EG][DF][_D=E] | [DF]2 [DB] [Fd]2 [DB] | [EG]2 [EG] [=EG][FA][GB] | %3
w: By~P.~Keil,~Jr. * * * *|||
 [Fc][FA][Fd] [Fc]3 | [DF]2 [DF] [EG][DF][_D=E] | [DF]2 [DB] [Fd]2 [DB] | [EG]2 [Ge] [Fd][Ec][DB] | %7
w: ||||
 [Ec][EG][EA] [DB]2 [DF] | [Fd]>[Fc][FB] [GB][FA][EG] | [DF]3 [B,D]2 F | %10
w: |||
 [GB]>[GB][GB] [=EB][Ec][Ed] | [Fc]3- [Fc]3/2 z/ [EF] | [Fd]>[Fc][FB] [_AB][Ac][Ad] | %13
w: |||
 [Ge]3 [EG]2 [_DG] | [DF][DB][Fd] [Ec][EG][EA] | [DB]6- | [DB]3 z3 |] %17
w: ||||
V:2
 B,2 B, B,B,B, | B,2 F, F,2 B, | B,2 B,[K:treble] CCC | A,C[K:bass]B, A,3 | B,2 B, B,B,B, | %5
 B,2 F, F,2 B, | B,2 B, B,A,B, | G,G,F, F,2 B, | B,>A,B, B,B,B, | B,3 F,2[K:treble] D | %10
 D>DD CC[K:bass]B, | A,3- A,3/2 z/ A, | B,>A,B, B,B,B, | B,3 B,2 B, | B,B,B, B,B,F, | F,6- | %16
 F,3 z3 |] %17
V:3
 B,,2 B,, B,,B,,B,, | B,,2 B,, B,,2 B,, | E,2 E, C,C,C, | F,F,F, F,3 | B,,2 B,, B,,B,,B,, | %5
 B,,2 B,, B,,2 B,, | E,2 C, D,E,F, | E, .C,2 B,,2 B,, | B,,>C,D, E,E,E, | B,,3 B,,2 B,, | %10
 G,>G,G, C,C,C, | F,3- F,3/2 z/ F, | B,,>C,D, F,D,B,, | E,3 E,2 =E, | F,F,F, F, .F,2 | B,,6- | %16
 B,,3 z3 |] %17

